X: 34144
T: Reel Du Vieux Moulin
R: reel
M: 4/4
K: Dmajor
D|:"D"D2 FD ADFF|"G"GABc "D"dcdD|"D"D2 FD ADFF|"A"EBGE BGED|
"D"D2 FD ADFF|"G"GABc "D"d2 A2|"D"defd "A"edcB|1 AGFE D2 "D"zD:|2 AGFE "D"D2 zA||
|:"D"dzdd defd|efed "Bm"B2 B2|"A"efed Acec|"D" defd "A"gfeA|
"D"dzdd defd|efed "Bm"B2 B2|"A"efed Aceg|1 fdec "D"d2 zA:|2 fdec "D"d2 z2||

